X:30
T:Pothole Polka
C:Jocelyne Patenaude
N:Spring in Montral
R:polka
M:2/4
L:1/16
K:Bmin
F2B2 B2A2 F2D2 E4|A3F D2E2 F2G2 G2F2|F2B2B2A2 F2D2 A4|G3E F2d2 e4d2 A2:|
F2A2 B2A2 F2D2 B4|d3c B2A2 B2B2 B2F2|d3d d2A2 d2e2f4|f2d2 c2A2 B4 B2A2:|
